flaticon/science/thermometer-1.svg

<svg xmlns="http://www.w3.org/2000/svg" width="32" height="32" viewBox="0 0 24 24">
    <path d="M 15.601562 14.121094 L 15.601562 3.601562 C 15.601562 1.601562 14 0 12 0 C 10 0 8.398438 1.601562 8.398438 3.601562 L 8.398438 14.121094 C 7.121094 15.199219 6.398438 16.71875 6.398438 18.398438 C 6.398438 21.480469 8.921875 24 12 24 C 15.078125 24 17.601562 21.480469 17.601562 18.398438 C 17.601562 16.71875 16.878906 15.199219 15.601562 14.121094 Z M 12 23.199219 C 9.359375 23.199219 7.199219 21.039062 7.199219 18.398438 C 7.199219 16.921875 7.878906 15.558594 9.039062 14.640625 C 9.160156 14.558594 9.199219 14.441406 9.199219 14.320312 L 9.199219 3.601562 C 9.199219 2.039062 10.441406 0.800781 12 0.800781 C 13.558594 0.800781 14.800781 2.039062 14.800781 3.601562 L 14.800781 14.320312 C 14.800781 14.441406 14.878906 14.558594 14.960938 14.640625 C 16.121094 15.558594 16.800781 16.921875 16.800781 18.398438 C 16.800781 21.039062 14.640625 23.199219 12 23.199219 Z M 12 23.199219"/>
    <path d="M 14.480469 15.238281 L 14 14.878906 L 14 9.601562 C 14 8.480469 13.121094 7.601562 12 7.601562 C 10.878906 7.601562 10 8.480469 10 9.601562 L 10 14.878906 L 9.519531 15.238281 C 8.558594 16 8 17.160156 8 18.398438 C 8 20.601562 9.800781 22.398438 12 22.398438 C 14.199219 22.398438 16 20.601562 16 18.398438 C 16 17.160156 15.441406 16 14.480469 15.238281 Z M 12 21.601562 C 10.238281 21.601562 8.800781 20.160156 8.800781 18.398438 C 8.800781 17.398438 9.238281 16.480469 10.039062 15.878906 L 10.640625 15.398438 C 10.761719 15.320312 10.800781 15.199219 10.800781 15.078125 L 10.800781 9.601562 C 10.800781 8.921875 11.320312 8.398438 12 8.398438 C 12.679688 8.398438 13.199219 8.921875 13.199219 9.601562 L 13.199219 15.078125 C 13.199219 15.199219 13.238281 15.320312 13.359375 15.398438 L 13.960938 15.878906 C 14.761719 16.480469 15.199219 17.398438 15.199219 18.398438 C 15.199219 20.160156 13.761719 21.601562 12 21.601562 Z M 12 21.601562"/>
</svg>

<svg xmlns="http://www.w3.org/2000/svg" width="32" height="32" viewBox="0 0 24 24">
    <path d="M15.602 14.121V3.601C15.602 1.602 14 0 12 0c-2 0-3.602 1.602-3.602 3.602v10.52c-1.277 1.077-2 2.597-2 4.276C6.398 21.48 8.922 24 12 24c3.078 0 5.602-2.52 5.602-5.602 0-1.68-.723-3.199-2-4.277zM12 23.2c-2.64 0-4.8-2.16-4.8-4.8 0-1.477.679-2.84 1.84-3.758.12-.082.16-.2.16-.32V3.6c0-1.562 1.241-2.8 2.8-2.8 1.559 0 2.8 1.238 2.8 2.8v10.72c0 .12.079.238.16.32 1.161.918 1.84 2.28 1.84 3.757 0 2.641-2.16 4.801-4.8 4.801zm0 0"/>
    <path d="M14.48 15.238l-.48-.36V9.603c0-1.122-.879-2-2-2s-2 .878-2 2v5.277l-.48.36A4.022 4.022 0 0 0 8 18.398c0 2.203 1.8 4 4 4s4-1.797 4-4a4.022 4.022 0 0 0-1.52-3.16zM12 21.602a3.21 3.21 0 0 1-3.2-3.204c0-1 .438-1.918 1.24-2.52l.6-.48c.122-.078.16-.199.16-.32V9.602c0-.68.52-1.204 1.2-1.204.68 0 1.2.524 1.2 1.204v5.476c0 .121.038.242.16.32l.6.48c.802.602 1.24 1.52 1.24 2.52a3.21 3.21 0 0 1-3.2 3.204zm0 0"/>
</svg>
